assets/img/braze_icons/car-01.svg

<svg fill="none" height="24" viewBox="0 0 24 24" width="24" xmlns="http://www.w3.org/2000/svg"><path clip-rule="evenodd" d="m8.16137 2.99965c2.55903.00383 5.11823.00383 7.67723 0 .6835-.00102 1.2834-.00191 1.8179.20831.4674.18382.8811.48204 1.2033.86731.3685.44061.5573 1.00999.7725 1.65871.2142.64578.4296 1.29114.6451 1.9365l.3067.91925.9687-.48436c.494-.24699 1.0946-.04677 1.3416.44721s.0468 1.09465-.4472 1.34164l-.5974.29868c.2857.29.5271.6237.7142.9909.2473.4854.3459 1.0021.3918 1.5642.0442.5412.0442 1.2055.0442 2.0105l-.0002.9278c-.0001.6324-.0003 1.2649.0003 1.8974.0003.3807.0005.7085-.0577 1.0014-.2368 1.19-1.1671 2.1203-2.3571 2.3571-.3958.0787-.8093.0705-1.2171.0625-.1235-.0025-.2464-.0049-.3682-.0049-1.4865 0-2.7205-1.0811-2.9585-2.5h-8.08297c-.23804 1.4189-1.47203 2.5-2.95852 2.5-.12178 0-.24473.0024-.36822.0049-.40775.008-.8213.0162-1.21706-.0625-1.19007-.2368-2.12036-1.1671-2.35708-2.3571-.058253-.2929-.057992-.6207-.057689-1.0014.000509-.6343.000349-1.2685.000199-1.9028l-.00016-.9224c-.000008-.805-.000018-1.4693.0442-2.0105.04592-.5621.14449-1.0788.39178-1.5642.18709-.3672.42856-.7009.71421-.9909l-.5974-.29868c-.49398-.24699-.694201-.84766-.44721-1.34164.24699-.49398.84766-.6942 1.34164-.44721l.96872.48436.30671-.91925c.21537-.64518.43093-1.29092.64505-1.93651.21517-.64872.40401-1.21809.77248-1.6587.32219-.38527.73594-.68349 1.20332-.86731.53452-.21022 1.1344-.20933 1.81787-.20831zm-2.77777 6.01165c.40401-.01152.86087-.01151 1.37511-.0115h10.48259c.5142-.00001.9711-.00002 1.3751.0115l-.8357-2.50721c-.2893-.86776-.3629-1.0356-.4551-1.1458-.1074-.12843-.2453-.22783-.4011-.28911-.1337-.05258-.3162-.06938-1.2309-.06938h-7.38717c-.9147 0-1.09722.0168-1.23091.06938-.1558.06128-.29372.16068-.40111.28911-.09216.1102-.16582.27804-.45508 1.1458zm-1.3836 3.9887c0-.5523.44772-1 1-1h3c.55228 0 1 .4477 1 1s-.44772 1-1 1h-3c-.55228 0-1-.4477-1-1zm12-1c-.5523 0-1 .4477-1 1s.4477 1 1 1h3c.5523 0 1-.4477 1-1s-.4477-1-1-1z" fill="#801ed7" fill-rule="evenodd"/></svg>

<svg width="24" height="24" viewBox="0 0 24 24" fill="none" xmlns="http://www.w3.org/2000/svg">
<path fill-rule="evenodd" clip-rule="evenodd" d="M8.16137 2.99965C10.7204 3.00348 13.2796 3.00348 15.8386 2.99965C16.5221 2.99863 17.122 2.99774 17.6565 3.20796C18.1239 3.39178 18.5376 3.69 18.8598 4.07527C19.2283 4.51588 19.4171 5.08526 19.6323 5.73398C19.8465 6.37976 20.0619 7.02512 20.2774 7.67048L20.5841 8.58973L21.5528 8.10537C22.0468 7.85838 22.6474 8.0586 22.8944 8.55258C23.1414 9.04656 22.9412 9.64723 22.4472 9.89422L21.8498 10.1929C22.1355 10.4829 22.3769 10.8166 22.564 11.1838C22.8113 11.6692 22.9099 12.1859 22.9558 12.748C23 13.2892 23 13.9535 23 14.7585L22.9998 15.6863C22.9997 16.3187 22.9995 16.9512 23.0001 17.5837C23.0004 17.9644 23.0006 18.2922 22.9424 18.5851C22.7056 19.7751 21.7753 20.7054 20.5853 20.9422C20.1895 21.0209 19.776 21.0127 19.3682 21.0047C19.2447 21.0022 19.1218 20.9998 19 20.9998C17.5135 20.9998 16.2795 19.9187 16.0415 18.4998H7.95853C7.72049 19.9187 6.4865 20.9998 5.00001 20.9998C4.87823 20.9998 4.75528 21.0022 4.63179 21.0047C4.22404 21.0127 3.81049 21.0209 3.41473 20.9422C2.22466 20.7054 1.29437 19.7751 1.05765 18.5851C0.999397 18.2922 0.999658 17.9644 0.999961 17.5837C1.00047 16.9494 1.00031 16.3152 1.00016 15.6809L1 14.7585C0.999992 13.9535 0.999982 13.2892 1.0442 12.748C1.09012 12.1859 1.18869 11.6692 1.43598 11.1838C1.62307 10.8166 1.86454 10.4829 2.15019 10.1929L1.55279 9.89422C1.05881 9.64723 0.858589 9.04656 1.10558 8.55258C1.35257 8.0586 1.95324 7.85838 2.44722 8.10537L3.41594 8.58973L3.72265 7.67048C3.93802 7.0253 4.15358 6.37956 4.3677 5.73397C4.58287 5.08525 4.77171 4.51588 5.14018 4.07527C5.46237 3.69 5.87612 3.39178 6.3435 3.20796C6.87802 2.99774 7.4779 2.99863 8.16137 2.99965ZM5.3836 9.0113C5.78761 8.99978 6.24447 8.99979 6.75871 8.9998H17.2413C17.7555 8.99979 18.2124 8.99978 18.6164 9.0113L17.7807 6.50409C17.4914 5.63633 17.4178 5.46849 17.3256 5.35829C17.2182 5.22986 17.0803 5.13046 16.9245 5.06918C16.7908 5.0166 16.6083 4.9998 15.6936 4.9998H8.30643C7.39173 4.9998 7.20921 5.0166 7.07552 5.06918C6.91972 5.13046 6.7818 5.22986 6.67441 5.35829C6.58225 5.46849 6.50859 5.63633 6.21933 6.50409L5.3836 9.0113ZM4 13C4 12.4477 4.44772 12 5 12H8C8.55228 12 9 12.4477 9 13C9 13.5523 8.55228 14 8 14H5C4.44772 14 4 13.5523 4 13ZM16 12C15.4477 12 15 12.4477 15 13C15 13.5523 15.4477 14 16 14H19C19.5523 14 20 13.5523 20 13C20 12.4477 19.5523 12 19 12H16Z" fill="#801ED7"/>
</svg>
